X:1
T:11th of October, The
M:C|
L:1/8
R:Reel
S:Patrick O'Farrell music manuscript collection (c. 1860's, Ballinamuck, Co. Longford)
Z:Transcribed by Conor Ward
K:A
F|EA (3cBA eA (3cBA|EA (3cBA (dB)Bd|(3cBA eA (fA)gA|(af)ed (cA) A:|
g|a2 ae a2 ae|(3fga ec (dB)Bg|a2 ae a2 ae|(3fga ed (cA)Ag|
a2 ae a2 ae|(3fga ec (dB)Bd|(3cBA eA (fA)gA|(af)ed (cA) A2||





